Icons/TM_Icons/more icons/number-05.svg

<?xml version='1.0' encoding='utf-8'?>
<ns0:svg xmlns:ns0="http://www.w3.org/2000/svg" version="1.1" viewBox="173.0 0.0 1480.0 1480.0" role="img" focusable="false" preserveAspectRatio="xMidYMid meet">
   <ns0:path fill="currentColor" d="M173 60c0 -204.667 72.167 -379.17 216.5 -523.5s318.833 -216.5 523.5 -216.5c204.67 0 379.17 72.1699 523.5 216.5s216.5 318.833 216.5 523.5s-72.1699 379.167 -216.5 523.5s-318.83 216.5 -523.5 216.5c-204.667 0 -379.167 -72.167 -523.5 -216.5 s-216.5 -318.833 -216.5 -523.5zM658 516c40.001 9.33301 76.834 16.5 110.5 21.5c33.668 5 64.501 7.5 92.5 7.5c114 0 203.33 -25.833 268 -77.5s97 -122.833 97 -213.5c0 -199.333 -139 -299 -417 -299c-11.335 0.0263672 -30.668 0.692383 -58 2v-198h457v-164h-533v448 c24.667 -2.67773 46.334 -4.01172 65 -4c192 0 288 76.333 288 229c0 130.667 -56 196 -168 196c-42.667 0 -71.833 -7.83301 -87.5 -23.5s-25.167 -46.5 -28.5 -92.5l-1 -23h-85v191z" />
</ns0:svg>

<svg xmlns="http://www.w3.org/2000/svg" width="400" height="200" viewBox="-567 -680 2960 1480"><path fill="currentColor" d="M173 60c0-204.667 72.167-379.17 216.5-523.5S708.333-680 913-680c204.67 0 379.17 72.17 523.5 216.5S1653-144.667 1653 60s-72.17 379.167-216.5 523.5S1117.67 800 913 800q-307 0-523.5-216.5C173 367 173 264.667 173 60m485 456q60.001 14 110.5 21.5 50.502 7.5 92.5 7.5c114 0 203.33-25.833 268-77.5s97-122.833 97-213.5q0-299-417-299-17.002.038-58 2v-198h457v-164H675V43q37-4.017 65-4 288 0 288 229 0 196-168 196-64 0-87.5-23.5C749 417 747.333 394 744 348l-1-23h-85z"/></svg>
